packages/dnb-ui-lib/assets/icons/currency_medium.svg

<svg width="24" height="24" viewBox="0 0 24 24" fill="none" xmlns="http://www.w3.org/2000/svg">
<path d="M18.75 3.75H16.717C16.4054 3.75022 16.1036 3.85884 15.8634 4.05723C15.6232 4.25563 15.4594 4.53143 15.4003 4.83734C15.3412 5.14325 15.3904 5.46019 15.5394 5.73382C15.6884 6.00745 15.928 6.2207 16.217 6.337L18.281 7.163C18.57 7.2793 18.8096 7.49255 18.9586 7.76618C19.1076 8.03981 19.1568 8.35675 19.0977 8.66266C19.0386 8.96857 18.8748 9.24437 18.6346 9.44277C18.3944 9.64116 18.0926 9.74978 17.781 9.75H15.75M17.25 3.75V3M17.25 10.5V9.75M8.25 20.25C7.45435 20.25 6.69129 19.9339 6.12868 19.3713C5.56607 18.8087 5.25 18.0456 5.25 17.25C5.25 16.4544 5.56607 15.6913 6.12868 15.1287C6.69129 14.5661 7.45435 14.25 8.25 14.25M4.5 17.25H8.25M1 4.5L3.25 8.25M3.25 8.25L7 6M3.25 8.25L3.772 7.786C3.65325 6.31301 4.02101 4.84175 4.81888 3.59788C5.61675 2.35402 6.80066 1.40627 8.189 0.9M23 19.5L20.75 15.75M20.75 15.75L17 18M20.75 15.75L20.228 16.216C20.3463 17.6887 19.9783 19.1595 19.1805 20.4029C18.3826 21.6464 17.199 22.5938 15.811 23.1M23.25 6.75C23.25 10.0637 20.5637 12.75 17.25 12.75C13.9363 12.75 11.25 10.0637 11.25 6.75C11.25 3.43629 13.9363 0.75 17.25 0.75C20.5637 0.75 23.25 3.43629 23.25 6.75ZM12.75 17.25C12.75 20.5637 10.0637 23.25 6.75 23.25C3.43629 23.25 0.75 20.5637 0.75 17.25C0.75 13.9363 3.43629 11.25 6.75 11.25C10.0637 11.25 12.75 13.9363 12.75 17.25Z" stroke="black" stroke-width="1.5" stroke-linecap="round" stroke-linejoin="round"/>
</svg>

<svg width="24" height="24" viewBox="0 0 24 24" fill="none" xmlns="http://www.w3.org/2000/svg"><path d="M18.75 3.75h-2.033a1.342 1.342 0 00-.5 2.587l2.064.826a1.342 1.342 0 01-.5 2.587H15.75m1.5-6V3m0 7.5v-.75m-9 10.5a3 3 0 010-6m-3.75 3h3.75M1 4.5l2.25 3.75m0 0L7 6M3.25 8.25l.522-.464A6.752 6.752 0 018.189.9M23 19.5l-2.25-3.75m0 0L17 18m3.75-2.25l-.522.466a6.752 6.752 0 01-4.417 6.884M23.25 6.75a6 6 0 11-12 0 6 6 0 0112 0zm-10.5 10.5a6 6 0 11-12 0 6 6 0 0112 0z" stroke="#000" stroke-width="1.5" stroke-linecap="round" stroke-linejoin="round"/></svg>
